X:240
T:Undutiful daughter - Masters
%%VWML:SBG-1-2-55-0
F:http://www.vwml.org/record/SBG/1/2/55
Z:Original Sibelius transcriptions by M. & S. Graebe
M:3/8
I:linebreak $
K:D
V:1 treble nm="P1" snm="Voice"
V:1
 A | d>e f/e/ | dBA/B/ | dAd | B!fermata!G :| d | =c>BA/G/ | GFG | Agf | ed x | %10
T:Undutiful Daughter - Baby's Opera
F:http://www.vwml.org/record/SBG/1/2/55
Z:Original Sibelius transcriptions by M. & S. Graebe
M:3/4
I:linebreak $
K:C
V:1 treble nm="P1"
V:1
 G2 | c3 d ed | (c2 A2) A2 | G3 A GF | E2 C2 G2 | c3 d ed |$ (c2 A2) A2 | G3 A GF | E2 C2 EF | %9
w: O|there is sweet _|mu- sic on|yon- der green _|hill, O! And|you shall be a|dan- cer, a|dan- cer _ in|yell- ow All in|
 G4 EF | G4 EF |$ G2 GA GF | E2 C2 EF | G2 G2 EF | G2 GA GF | E2 C2"_O" z2 | %16
w: yellow all in|yellow said ye|crow to the frog &|then O! all in|yel- low all _|yellow said ye frog to|crow again|
T:Undutiful Daughter - Fone
F:http://www.vwml.org/record/SBG/1/2/55
Z:Original Sibelius transcriptions by M. & S. Graebe
M:3/4
I:linebreak $
K:C
V:1 treble nm="P1" snm="Voice"
V:1
 G | c e c | d B G | ^F/A/ c B/A/ | G E G | G3/2 A/ G | G f e | d c B | d c2 | %9
T:Undutiful daughter - Gregory
F:http://www.vwml.org/record/SBG/1/2/55
Z:Original Sibelius transcriptions by M. & S. Graebe
L:1/8
M:2/4
I:linebreak $
K:C
V:1 treble nm="P1"
V:2 treble 
L:1/16
V:1
 G | ccAB/c/ | ddGG | cGcd | e2 fe dG | ce/f/ ge/d/ | ce/c/ AB/c/ |$ dd/c/ GA/B/ | c2 G2 | %9
 ce/f/ ge/d/ | ce/c/ AB/c/ | dd/c/ G/A/B | c3 x | %13
V:2
 x2 | x8 | x8 | x8 | x12 | x8 | x8 |$ dedc x4 | x8 | x2 x2 x4 | x8 | dedc x4 | x8 | %13
T:Undutiful daughter - Smith
F:http://www.vwml.org/record/SBG/1/2/55
Z:Original Sibelius transcriptions by M. & S. Graebe
M:3/4
I:linebreak $
K:Eb
V:1 treble nm="P1" snm="Voice"
V:1
 G/A/ | B G B | A F B, | C D E/C/ | B, G, B, | B,3/2 C/ B, | G2 F | F C D | F E x | %9
T:Undutiful Daughter with pencilled notes - Fone
F:http://www.vwml.org/record/SBG/1/2/55
Z:Original Sibelius transcriptions by M. & S. Graebe
M:3/4
I:linebreak $
K:C
V:1 treble nm="P1" snm="Voice"
V:1
 G | z E D | c B A | G E ^F | A A G | z3 | z3 | z3 | z3 | %9

